storage/app/icons/phosphoricons/duotone/address-book-duotone.svg

<svg xmlns="http://www.w3.org/2000/svg" fill="currentColor" viewBox="0 0 256 256"><path d="M208 32H64a8 8 0 0 0-8 8v176a8 8 0 0 0 8 8h144a8 8 0 0 0 8-8V40a8 8 0 0 0-8-8m-72 112a32 32 0 1 1 32-32 32 32 0 0 1-32 32" opacity=".2"/><path d="M83.19 174.4a8 8 0 0 0 11.21-1.6 52 52 0 0 1 83.2 0 8 8 0 1 0 12.8-9.6 67.9 67.9 0 0 0-27.4-21.69 40 40 0 1 0-53.94 0A67.9 67.9 0 0 0 81.6 163.2a8 8 0 0 0 1.59 11.2M112 112a24 24 0 1 1 24 24 24 24 0 0 1-24-24m96-88H64a16 16 0 0 0-16 16v24H32a8 8 0 0 0 0 16h16v40H32a8 8 0 0 0 0 16h16v40H32a8 8 0 0 0 0 16h16v24a16 16 0 0 0 16 16h144a16 16 0 0 0 16-16V40a16 16 0 0 0-16-16m0 192H64V40h144Z"/></svg>

<svg xmlns="http://www.w3.org/2000/svg" viewBox="0 0 256 256" fill="currentColor"><path d="M208,32H64a8,8,0,0,0-8,8V216a8,8,0,0,0,8,8H208a8,8,0,0,0,8-8V40A8,8,0,0,0,208,32ZM136,144a32,32,0,1,1,32-32A32,32,0,0,1,136,144Z" opacity="0.2"/><path d="M83.19,174.4a8,8,0,0,0,11.21-1.6,52,52,0,0,1,83.2,0,8,8,0,1,0,12.8-9.6A67.88,67.88,0,0,0,163,141.51a40,40,0,1,0-53.94,0A67.88,67.88,0,0,0,81.6,163.2,8,8,0,0,0,83.19,174.4ZM112,112a24,24,0,1,1,24,24A24,24,0,0,1,112,112Zm96-88H64A16,16,0,0,0,48,40V64H32a8,8,0,0,0,0,16H48v40H32a8,8,0,0,0,0,16H48v40H32a8,8,0,0,0,0,16H48v24a16,16,0,0,0,16,16H208a16,16,0,0,0,16-16V40A16,16,0,0,0,208,24Zm0,192H64V40H208Z"/></svg>
